img/auth-apple.svg

<svg width="26" height="26" viewBox="0 0 26 26" fill="none" xmlns="http://www.w3.org/2000/svg">
<path d="M0.879883 13.44C0.879883 6.54745 6.46737 0.959961 13.3599 0.959961C20.2524 0.959961 25.8399 6.54745 25.8399 13.44C25.8399 20.3325 20.2524 25.92 13.3599 25.92C6.46737 25.92 0.879883 20.3325 0.879883 13.44Z" fill="white"/>
<path fill-rule="evenodd" clip-rule="evenodd" d="M16.0987 5.9519C16.2293 6.83935 15.8681 7.70875 15.3916 8.32387C14.8818 8.98365 14.0031 9.49395 13.1517 9.46732C12.9963 8.61768 13.3942 7.74226 13.8784 7.15378C14.4096 6.5043 15.3199 6.00603 16.0987 5.9519ZM18.6563 18.4431C19.0952 17.7705 19.2591 17.4311 19.5999 16.6717C17.1217 15.7293 16.7246 12.2061 19.1772 10.8539C18.4291 9.91577 17.3779 9.37196 16.3856 9.37196C15.6706 9.37196 15.1807 9.55854 14.7354 9.72817C14.3642 9.86952 14.024 9.9991 13.6103 9.9991C13.1631 9.9991 12.7671 9.85712 12.3525 9.70846C11.8969 9.54511 11.4188 9.37368 10.8255 9.37368C9.71196 9.37368 8.52668 10.0541 7.7752 11.2173C6.71886 12.8556 6.89904 15.9354 8.61207 18.5591C9.22436 19.4981 10.0424 20.5531 11.1124 20.5625C11.5564 20.5669 11.8519 20.4344 12.1716 20.291C12.5375 20.1269 12.9353 19.9485 13.6239 19.9448C14.3166 19.9407 14.7081 20.1213 15.0692 20.2878C15.3807 20.4315 15.6696 20.5647 16.1098 20.56C17.1806 20.5514 18.044 19.3821 18.6563 18.4431Z" fill="#0B0B0A"/>
</svg>

<svg width="26" height="26" fill="none" xmlns="http://www.w3.org/2000/svg"><path d="M.88 13.44C.88 6.547 6.467.96 13.36.96c6.892 0 12.48 5.587 12.48 12.48 0 6.893-5.588 12.48-12.48 12.48C6.467 25.92.88 20.332.88 13.44Z" fill="#fff"/><path fill-rule="evenodd" clip-rule="evenodd" d="M16.099 5.952c.13.887-.23 1.757-.707 2.372-.51.66-1.389 1.17-2.24 1.143-.156-.85.242-1.725.726-2.313.532-.65 1.442-1.148 2.22-1.202Zm2.557 12.491c.44-.673.603-1.012.944-1.771-2.478-.943-2.875-4.466-.423-5.818-.748-.938-1.8-1.482-2.791-1.482-.715 0-1.205.187-1.65.356-.372.142-.712.271-1.126.271-.447 0-.843-.142-1.258-.29-.455-.164-.933-.335-1.527-.335-1.113 0-2.298.68-3.05 1.843-1.056 1.639-.876 4.718.837 7.342.612.94 1.43 1.994 2.5 2.003.444.005.74-.128 1.06-.271.365-.164.763-.343 1.452-.346.693-.004 1.084.176 1.445.343.312.143.6.277 1.04.272 1.072-.009 1.935-1.178 2.547-2.117Z" fill="#0B0B0A"/></svg>
